X:6
T:The Ballad of Casey Jones
M:4/4
L:1/8
Q:1/4=100
K:C clef=treble
"C"c c2 c c3/-B/ A3/-G/ | c3/-B/ c3/G/ -G2 G3/G/ | cccc -c3/-B/ A3/-^G/ |"D7" A3/-^G/ A3/B/ -"G7 "B4 | 
"C" c c2 c- c3/-B/ A3/G/ | c3/B/ c3/G/- G2 E3/F/ | E2 EE G3/A/ G3/F/ | "D7" E3/-C/ "G7"D3/C/ "C"-C2 z G |
c c2 c c3/-B/ A3/G/ | c3/B/ c3/G/- G2 G2 | cccc-  c3/B/ A3/-^G/ | "D7"A3/-^G/ A3/B/ "G7"B4 | 
"C"c-ccc c3/B/ A3/G/ | c-Bc-c G2 E3/F/ | G3/-G/ G3/-G/ G3/-A/ G3/F/ | "D7" E3/C/ "G7"D3/C/- "C"C2 z2 |]
"C" E G2 [EG]-[EG]4 | c3/d/ e3/c/"F" d A3 | "C" E G2 [EG]-[EG]2 G3/G/ | "D7"c3/d/ e3/c/ "G7"d4 | 
"C" E G2 [EG]-[EG]4 | c3/d/ e3/c/ "F" d3/c/ A3/G/ | "C" E3/G/ G3/G/ G3/A/ G3/F/ | "D7"E3/C/ D3/C/- C2 z2 |]
W:
W:Come all you rounders if you wanna hear
W:the story about a brave engineer
W:Casey Jones was the roller's name
W:on a 6-8 wheeler course he won his fame
W:Caller called Casey bout half past four
W:he kissed his wife at the station door
W:He climbed in the cabin
W:with his orders in his hand
W:Said this is the trip to the Promised Land
W:
W:Casey Jones climbed in the cabin
W:Casey Jones orders in his hand
W:Casey Jones leanin' out the window
W:taking a trip to the Promised Land
W:
W:Through South Memphis Yards on a fly
W:rain been a fallin' and the water was high
W:Everybody knew by the engine's moan
W:that the man at the throttle was Casey Jones
W:Well Jones said fireman now don't you fret
W:Sam Webb said we ain't a givin' up yet
W:We're eight hours late with the southbound mail
W:We'll be on time or we're leavin' the rails
W:
W:Casey Jones climbed in the cabin
W:Casey Jones orders in his hand
W:Casey Jones leanin' out the window
W:taking a trip to the Promised Land
W:
W:Dead on the rail was a passenger train
W:blood was a boilin' in Casey's brain
W:Casey said hey now look out ahead
W:jump Sam jump or we'll all be dead
W:With a hand on a whistle and a hand on a brake
W:north Mississippi was wide awake
W:I see railroad official said
W:he's a good engineer to be a laying dead
W:
W:Casey Jones climbed in the cabin
W:Casey Jones orders in his hand
W:Casey Jones leanin' out the window
W:taking a trip to the Promised Land
W:
W:Headaches and heartaches
W:and all kinds of pain
W:all the part of a railroad train
W:Sweat and toil the good and the grand
W:part of the life of a railroad man
W:
W:Casey Jones climbed in the cabin
W:Casey Jones orders in his hand
W:Casey Jones leanin' out the window
W:taking a trip to the Promised Land | 
W:

